resources/svg/c-sharp-o.svg

<svg xmlns="http://www.w3.org/2000/svg" viewBox="0 0 15 15" fill="none"><path d="M9.5 5V10M11.5 5V10M8 6.5H13M8 8.5H13M8 10L7.59787 10.2011C7.20469 10.3977 6.77114 10.5 6.33156 10.5C4.76773 10.5 3.5 9.23227 3.5 7.66844V7.33156C3.5 5.76773 4.76773 4.5 6.33156 4.5C6.77114 4.5 7.20469 4.60235 7.59787 4.79894L8 5M1.5 10.5V4.5L7.5 1L13.5 4.5V10.5L7.5 14L1.5 10.5Z" stroke="black"/></svg>

<svg xmlns="http://www.w3.org/2000/svg" viewBox="0 0 15 15" fill="none"><path d="M9.5 5v5m2-5v5M8 6.5h5m-5 2h5M8 10l-.402.201A2.831 2.831 0 013.5 7.668v-.336a2.832 2.832 0 014.098-2.533L8 5m-6.5 5.5v-6l6-3.5 6 3.5v6l-6 3.5-6-3.5z" stroke="currentColor"/></svg>
